X: 6
T: Sanctus Super iste puer magnus
N: Derived from Ano1002-Sanctus_Super_iste_puer_magnus--Munich_3154.krn
C: Anonymous
%%abc-version 2.0
%%abcx-abcm2ps-target-version 5.9.1 (29 Sep 2008)
%%abc-creator hum2abc beta
%%abcx-conversion-date 2019/02/16 20:18:26
%%abc-edited-by Jesse Rodin
%%abc-edited-by Jesse Rodin 8/14/2013
%%abcx-initial-encoding-date 2013/08/14/
%%humdrum-veritas 3616089226
%%humdrum-veritas-data 3300267426
%%linebreak <none>
%%barnumbers 0
L: 1/4
M: 3/1
Q: 1/2=120
%%staves [1 2 3 4]
V: 1 clef=treble
V: 2 clef=treble-8
V: 3 clef=treble-8
V: 4 clef=bass
K: C
[V:1] G6FED2G2 | 
[V:2] G12 | 
[V:3] z12 | 
[V:4] z12 | 
[V:1] E2C3DECG4- | 
[V:2] c6BAG2c2- | 
[V:3] z12 | 
[V:4] C,12- | 
[V:1] G2A2G2E4c2 | 
[V:2] cdecg2a2g2e2 | 
[V:3] z12 | 
[V:4] C,12 | 
[V:1] B2A4d3cA2- | 
[V:2] f4d2cBA4 | 
[V:3] z12 | 
[V:4] D,12- | 
[V:1] A2d3cBAB4 | 
[V:2] d2f3edcd4 | 
[V:3] z12 | 
[V:4] D,12 | 
[V:1] c6A2A4 | 
[V:2] c4f6d2 | 
[V:3] z12 | 
[V:4] F,12 | 
[V:1] B6G2G4 | 
[V:2] d4e6d2 | 
[V:3] z12 | 
[V:4] G,8G,4 | 
[V:1] z2c4A2B4 | 
[V:2] c4z2c2d2e2 | 
[V:3] z12 | 
[V:4] A,8G,4 | 
[V:1] A4z2d4c2 | 
[V:2] z2f4d2e4 | 
[V:3] z12 | 
[V:4] F,8z4 | 
[V:1] B2G3FE2D4 | 
[V:2] d2e4c4B2 | 
[V:3] z12 | 
[V:4] G,12 | 
[V:1] C4z4c4 | 
[V:2] c8z4 | 
[V:3] z12 | 
[V:4] A,12 | 
[V:1] B3cd2e2d2B2 | 
[V:2] d2e2d2B3cd2- | 
[V:3] z12 | 
[V:4] G,12 | 
[V:1] c2d3cA2B2c2- | 
[V:2] dcA3Bc3BA2 | 
[V:3] z12 | 
[V:4] F,12 | 
[V:1] cBG3ABcB2G2 | 
[V:2] G3ABcB2G2B2- | 
[V:3] z12 | 
[V:4] E,12 | 
[V:1] B3cd2G4F2 | 
[V:2] Bcd4B2A4 | 
[V:3] z12 | 
[V:4] D,12 | 
[V:1] G2A3GFEF4 | 
[V:2] B2c3BAGA4 | 
[V:3] z12 | 
[V:4] z4z4D,4 | 
[V:1] z4z4A4 | 
[V:2] G2A3G^FE^F4 | 
[V:3] z12 | 
[V:4] B,,2C,3B,,A,,G,,A,,4 | 
[V:1] B4c4z2A2 | 
[V:2] G2z2G2A3Gc2- | 
[V:3] z12 | 
[V:4] G,,2G,2E,2F,3E,D,C, | 
[V:1] BAGFE2F3EDC | 
[V:2] c2B2c2d3cBA | 
[V:3] z12 | 
[V:4] D,4C,2B,,2G,,4 | 
[V:1] D4E2D3CC2- | 
[V:2] B4c4z4 | 
[V:3] z12 | 
[V:4] z2G,2E,2F,3E,D,C, | 
[V:1] C2B,2C4z2G2 | 
[V:2] d4c2g4e2 | 
[V:3] z12 | 
[V:4] D,2G,,2A,,2B,,2C,4 | 
[V:1] A2B2cBAGG4 | 
[V:2] d4c3BAGA2- | 
[V:3] z12 | 
[V:4] z2G,2E,2F,3E,D,C, | 
[V:1] F2G2EF2GE2D2 | 
[V:2] A2G2c2d2e2f2 | 
[V:3] z12 | 
[V:4] D,2G,,2A,,2B,,2C,2D,2 | 
[V:1] CG2AB2c4B2 | 
[V:2] g2ef2ge2d4 | 
[V:3] z12 | 
[V:4] z12 | 
[V:1] A2G4F2E2C2 | 
[V:2] c2B2A4G2c2- | 
[V:3] z12 | 
[V:4] z12 | 
[V:1] D4z2c4d2- | 
[V:2] c2B2c4z2A2 | 
[V:3] z12 | 
[V:4] z2G,2E,2F,3E,D,C, | 
[V:1] dcB2A2G4^F2 | 
[V:2] B4c2B2A4 | 
[V:3] z12 | 
[V:4] D,2G,,2A,,2B,,2C,2D,2 | 
[V:1] G12 | 
[V:2] G12 | 
[V:3] z12 | 
[V:4] E,4z4z2G,2 | 
[V:1] z2A3GFEF2G2 | 
[V:2] c4d4B4 | 
[V:3] z12 | 
[V:4] E,2F,3E,D,C,D,2G,,2 | 
[V:1] E2G3FD2G2A2 | 
[V:2] c2d2e2f2c4 | 
[V:3] z12 | 
[V:4] A,,2B,,2C,2D,2E,2F,2 | 
[V:1] B2G3FD4A2- | 
[V:2] d4z2a3gfe | 
[V:3] z12 | 
[V:4] z2G,2E,2F,3E,D,C, | 
[V:1] A2B2c2d2e4- | 
[V:2] f2g2e6f2 | 
[V:3] z12 | 
[V:4] D,2G,,2A,,2B,,2C,2D,2 | 
[V:1] e2d3cc4B2 | 
[V:2] g6fed4 | 
[V:3] z12 | 
[V:4] E,2F,2G,4G,4 | 
[V:1] c8z4 | 
[V:2] c8z4 | 
[V:3] z12 | 
[V:4] C,12 | 
[V:1] c8B4 | 
[V:2] c8d4 | 
[V:3] G12- | 
[V:4] C,6B,,A,,G,,4 | 
[V:1] G3AB2c3BG2- | 
[V:2] e4d2e3fg2- | 
[V:3] G12- | 
[V:4] C,4G,,2C,3D,E,F, | 
[V:1] GA_B3AGFG4 | 
[V:2] gfede2d4^c2 | 
[V:3] G12 | 
[V:4] E,2G,3F,E,D,E,4 | 
[V:1] ^F8F4 | 
[V:2] d8z4 | 
[V:3] A12- | 
[V:4] D,12- | 
[V:1] z2^F4G2A2F2 | 
[V:2] d12 | 
[V:3] A12 | 
[V:4] D,12 | 
[V:1] G4G4A4 | 
[V:2] e8f4 | 
[V:3] c12- | 
[V:4] C,8F,,2A,,2 | 
[V:1] G2A3GG4^F2 | 
[V:2] e2c3BAGA4 | 
[V:3] c12 | 
[V:4] C,2A,,3B,,C,2A,,2C,2 | 
[V:1] G8z4 | 
[V:2] G12 | 
[V:3] d12- | 
[V:4] B,,2G,,4A,,2B,,2C,2 | 
[V:1] A8A4 | 
[V:2] F12 | 
[V:3] d12- | 
[V:4] D,4D,2D,3C,B,,A,, | 
[V:1] B4G2d3cBA | 
[V:2] G12 | 
[V:3] d12 | 
[V:4] G,,4G,,4z4 | 
[V:1] G2B2A2B3cd2 | 
[V:2] z12 | 
[V:3] d12- | 
[V:4] G,4F,2G,3A,B,2 | 
[V:1] cB2AB3ABcB2- | 
[V:2] z12 | 
[V:3] d12- | 
[V:4] A,G,2F,G,3F,G,A,G,2- | 
[V:1] B2A4B3cd2- | 
[V:2] d3ef2g3fd2- | 
[V:3] d12 | 
[V:4] G,2D,4G,,2B,,3C, | 
[V:1] dBG2F2G2A4 | 
[V:2] d2c2d2B2A4 | 
[V:3] z12 | 
[V:4] D,2E,2D,2G,4F,2 | 
[V:1] z2F2G2E2F2G2 | 
[V:2] G2A2G2c4B2 | 
[V:3] z12 | 
[V:4] E,2D,C,B,,2C,2D,4 | 
[V:1] E2F3EDCD4 | 
[V:2] c2d3cBAB4 | 
[V:3] z12 | 
[V:4] z4z4G,4 | 
[V:1] z2G4E2G3A | 
[V:2] c8B4 | 
[V:3] e12- | 
[V:4] C,6E,3F,G,2 | 
[V:1] B2c3BB4A2 | 
[V:2] z2E4D2E2F2 | 
[V:3] e12 | 
[V:4] G,,2A,,4B,,2C,4 | 
[V:1] B2d3cA2G2d2 | 
[V:2] G3AB2c4B2 | 
[V:3] d12 | 
[V:4] B,,2G,,4F,,2G,,4 | 
[V:1] z2G4F2G4 | 
[V:2] c4A4G4 | 
[V:3] c12- | 
[V:4] A,,2C,4D,2E,4 | 
[V:1] A12- | 
[V:2] F2A3Bc2F4 | 
[V:3] c12- | 
[V:4] F,6A,6 | 
[V:1] A4G4A4 | 
[V:2] z2f4e2f4- | 
[V:3] c12 | 
[V:4] C2F,2C,4F,4 | 
[V:1] A2_B3AGFG4 | 
[V:2] f2d3cBAB4 | 
[V:3] d12 | 
[V:4] D,C,B,,A,,G,,4z4 | 
[V:1] A4c6BA | 
[V:2] A8c4- | 
[V:3] e12 | 
[V:4] A,,12 | 
[V:1] G8z2c2 | 
[V:2] c4G8 | 
[V:3] e12 | 
[V:4] C,12 | 
[V:1] B2d3cc4B2 | 
[V:2] z2B4c2G4 | 
[V:3] d12 | 
[V:4] G,,12 | 
[V:1] c8z4 | 
[V:2] g4e2f2g4- | 
[V:3] c12 | 
[V:4] z2C,4D,2E,2F,2 | 
[V:1] d8d4 | 
[V:2] g2fed2G2F2G2- | 
[V:3] B12- | 
[V:4] G,6F,E,D,2G,,2- | 
[V:1] e2d4c2B2AG | 
[V:2] GABcd6e2 | 
[V:3] B12 | 
[V:4] G,,F,,G,,4A,,2B,,2C,2 | 
[V:1] ^F12 | 
[V:2] d2cBA2d4d2 | 
[V:3] A12- | 
[V:4] D,6C,B,,A,,4 | 
[V:1] ^F12 ||  
[V:2] d12 ||  
[V:3] A12 ||  
[V:4] D,12 ||  
[V:1]  [K:C] [K:clef=treble][M:3/1]z12 | 
[V:2]  [K:C] [K:clef=treble-8][M:3/1]d8e4 | 
[V:3]  [K:C] [K:clef=treble-8][M:3/1]z12 | 
[V:4]  [K:C] [K:clef=bass][M:3/1]G,4F,2G,4A,2 | 
[V:1] G8A4 | 
[V:2] d4e2g4f2 | 
[V:3] z12 | 
[V:4] B,2G,3F,E,2D,4 | 
[V:1] G4A2c4B2 | 
[V:2] e2c4e2d4 | 
[V:3] z12 | 
[V:4] z12 | 
[V:1] c4z2A4B2 | 
[V:2] c8d4 | 
[V:3] z12 | 
[V:4] F,4E,2F,4G,2 | 
[V:1] c2A3GF2E4 | 
[V:2] c4A2B2c4 | 
[V:3] z12 | 
[V:4] A,2F,3E,D,2C,4 | 
[V:1] D4E2G4^F2 | 
[V:2] B2G4B2A4 | 
[V:3] z12 | 
[V:4] z12 | 
[V:1] G2z2F2G4A2 | 
[V:2] G4z4c4 | 
[V:3] z12 | 
[V:4] E,4D,2E,4F,2 | 
[V:1] B2G4A2B4 | 
[V:2] B2c3BA4G2 | 
[V:3] z12 | 
[V:4] G,2E,3D,C,2B,,4 | 
[V:1] c2Bd2cA4^G2 | 
[V:2] A2G2A2c2B4 | 
[V:3] z12 | 
[V:4] z12 | 
[V:1] A4z4A4 | 
[V:2] A8d4 | 
[V:3] z12 | 
[V:4] D,4C,2D,4E,2 | 
[V:1] D8E4 | 
[V:2] z2f4d4c2 | 
[V:3] z12 | 
[V:4] F,2D,3C,B,,2A,,4 | 
[V:1] D2G4F2E2D2 | 
[V:2] B2G2d4c2BA | 
[V:3] z12 | 
[V:4] z12 | 
[V:1] G2A2B2G4F2 | 
[V:2] G2c2d2cBA4 | 
[V:3] z12 | 
[V:4] C,4B,,2C,4D,2 | 
[V:1] G2E4C2D4 | 
[V:2] G4c2c4B2 | 
[V:3] z12 | 
[V:4] E,2C,3B,,A,,2G,,4 | 
[V:1] B,8C4 | 
[V:2] G2d3cG2E2F2 | 
[V:3] z12 | 
[V:4] z4G,,4A,,4 | 
[V:1] [M:3/1](3:2:11B,2C2D2E2F E D CD2A,2B,2 | 
[V:2] G4z4d4 | 
[V:3] z12 | 
[V:4] G,,4C,2E,2D,4 | 
[V:1] [M:3/1]C8z4 | 
[V:2] e3fg2a3gg2- | 
[V:3] z12 | 
[V:4] C,12 | 
[V:1] D4E3FG2A2- | 
[V:2] g2f2g2e4c2 | 
[V:3] z12 | 
[V:4] z12 | 
[V:1] AGG4F2G2E2- | 
[V:2] d2B2A4G4 | 
[V:3] z12 | 
[V:4] z4D,4E,3F, | 
[V:1] E2C2D2B,2A,4 | 
[V:2] z4z4c4 | 
[V:3] z12 | 
[V:4] G,2A,3G,G,4F,2 | 
[V:1] G,4z4z4 | 
[V:2] B4G2A3GG2- | 
[V:3] z12 | 
[V:4] G,2E,4C,2D,2B,,2 | 
[V:1] C4B,2D3EFG | 
[V:2] G2^F2G4z4 | 
[V:3] z12 | 
[V:4] A,,4G,,4z4 | 
[V:1] E2G4F2A3B | 
[V:2] c4B2d3efg | 
[V:3] z12 | 
[V:4] z12 | 
[V:1] c2B2d4c2A2- | 
[V:2] e2g4f2a3g | 
[V:3] z12 | 
[V:4] z12 | 
[V:1] ABc2B2d3cB2 | 
[V:2] f2e2g4f2d2- | 
[V:3] z12 | 
[V:4] z12 | 
[V:1] A4G3AB2c2- | 
[V:2] def2e2g3fe2 | 
[V:3] z12 | 
[V:4] z12 | 
[V:1] c2B2c4z4 | 
[V:2] d4c2f4e2 | 
[V:3] z12 | 
[V:4] G,4A,2F,2G,4 | 
[V:1] A6A2A4 | 
[V:2] f12 | 
[V:3] z12 | 
[V:4] z4F,6F,2 | 
[V:1] A12 | 
[V:2] z12 | 
[V:3] z12 | 
[V:4] F,3E,D,C,D,3C,B,,A,, | 
[V:1] _B8A4 | 
[V:2] z12 | 
[V:3] z12 | 
[V:4] G,,2D,2E,2G,4F,2 | 
[V:1] G4F4E4 | 
[V:2] z12 | 
[V:3] z12 | 
[V:4] G,2_B,4A,2G,2C2- | 
[V:1] D4C2D4E2 | 
[V:2] z12 | 
[V:3] z12 | 
[V:4] C2_B,2A,2F,2G,3F, | 
[V:1] F3EC2G3FD2 | 
[V:2] z12 | 
[V:3] z12 | 
[V:4] D,2A,3G,E,2G,3F, | 
[V:1] A3GE2c2B2d2- | 
[V:2] z12 | 
[V:3] z12 | 
[V:4] D,2A,3G,E,2G,3F, | 
[V:1] dcA2c3BG3F | 
[V:2] z12 | 
[V:3] z12 | 
[V:4] D,2A,3G,E,2G,F,E,D, | 
[V:1] EDE3DD4^C2 | 
[V:2] z12 | 
[V:3] z12 | 
[V:4] A,2G,3D,F,2E,4 | 
[V:1] D8z2C2 | 
[V:2] f8e4 | 
[V:3] z12 | 
[V:4] D,4z4A,4 | 
[V:1] D2C3D/E/F3E/D/E2- | 
[V:2] d2f3ec4B2 | 
[V:3] z12 | 
[V:4] _B,2A,2F,4G,4 | 
[V:1] E2F2D2E2C2z2 | 
[V:2] c2F2G2E2F2D2 | 
[V:3] z12 | 
[V:4] C,2D,2B,,2C,2A,,2B,,2 | 
[V:1] G4A2Bc2BA2 | 
[V:2] E2z2F2GA2Bc2- | 
[V:3] z12 | 
[V:4] G,,4F,,4z4 | 
[V:1] G4A2B2cd2c | 
[V:2] c2B2A2G2AB2c | 
[V:3] z12 | 
[V:4] C,2D,E,2F,G,2F,D,E,2 | 
[V:1] B2A3Gc4B2 | 
[V:2] d2c2B2c2d4 | 
[V:3] z12 | 
[V:4] D,2E,F,2G,A,2G,4 | 
[V:1] c12 | 
[V:2] c3de2f3edc | 
[V:3] z12 | 
[V:4] C,4z2A,3G,F,E, | 
[V:1] z12 | 
[V:2] B2ce2dc4B2 | 
[V:3] z12 | 
[V:4] D,2C,2E,2F,2D,4 | 
[V:1] c12 ||  
[V:2] c12 ||  
[V:3] z12 ||  
[V:4] C,12 ||  
[V:1]  [K:C] [K:clef=treble][M:2/1]c8 | 
[V:2]  [K:C] [K:clef=treble-8][M:2/1]c8- | 
[V:3]  [K:C] [K:clef=treble-8][M:2/1]A8- | 
[V:4]  [K:C] [K:clef=bass][M:2/1]F,8 | 
[V:1] c8- | 
[V:2] c8 | 
[V:3] A8- | 
[V:4] F,4F,4- | 
[V:1] c4A4 | 
[V:2] f8 | 
[V:3] A8- | 
[V:4] F,2E,2F,2D,2 | 
[V:1] A6B2 | 
[V:2] e4f4- | 
[V:3] A8- | 
[V:4] A,,4D,4 | 
[V:1] c4d4- | 
[V:2] f4d4 | 
[V:3] A8- | 
[V:4] z4D,4 | 
[V:1] d4^c4 | 
[V:2] e8 | 
[V:3] A8 | 
[V:4] A,,8 | 
[V:1] d8 | 
[V:2] d4B4- | 
[V:3] d8- | 
[V:4] B,,4G,,4- | 
[V:1] z4d4- | 
[V:2] B4G4 | 
[V:3] d8- | 
[V:4] G,,4G,4- | 
[V:1] d2c2A4 | 
[V:2] A8 | 
[V:3] d8- | 
[V:4] G,4^F,4 | 
[V:1] B4G4- | 
[V:2] G8 | 
[V:3] d8- | 
[V:4] G,2B,4A,2 | 
[V:1] G4B4 | 
[V:2] z4g4- | 
[V:3] d8- | 
[V:4] G,2F,2G,4 | 
[V:1] A6G2 | 
[V:2] g4f4 | 
[V:3] d8 | 
[V:4] D,8 | 
[V:1] B4A4- | 
[V:2] g4f4- | 
[V:3] d8- | 
[V:4] G,,4D,4- | 
[V:1] A2G2F2E2 | 
[V:2] f2e2d2c2 | 
[V:3] d8- | 
[V:4] D,2E,2F,2G,2 | 
[V:1] A4G2F2- | 
[V:2] f4e2d2- | 
[V:3] d8- | 
[V:4] D,8 | 
[V:1] F2E2D2G2- | 
[V:2] d2c2B4 | 
[V:3] d8- | 
[V:4] G,8 | 
[V:1] G2^FEF4 | 
[V:2] A8 | 
[V:3] d8- | 
[V:4] D,8 | 
[V:1] G8- | 
[V:2] G8 | 
[V:3] d8 | 
[V:4] z4G,,4 | 
[V:1] G8- | 
[V:2] z4G4 | 
[V:3] c8- | 
[V:4] C,6D,2 | 
[V:1] G8 | 
[V:2] c2d2e2f2 | 
[V:3] c8- | 
[V:4] E,2F,2E,4 | 
[V:1] z8 | 
[V:2] e3fg2a2- | 
[V:3] c8- | 
[V:4] A,4B,2C2- | 
[V:1] A8 | 
[V:2] ag^fe^f4 | 
[V:3] c8 | 
[V:4] CB,A,G,A,4 | 
[V:1] B8 | 
[V:2] g8 | 
[V:3] d8- | 
[V:4] G,8- | 
[V:1] B6AG | 
[V:2] g6fe | 
[V:3] d8- | 
[V:4] G,8 | 
[V:1] A8 | 
[V:2] f8 | 
[V:3] d8- | 
[V:4] D,8 | 
[V:1] B8 | 
[V:2] g8 | 
[V:3] d8 | 
[V:4] G,,8 | 
[V:1] c6B2 | 
[V:2] z4c4- | 
[V:3] c8- | 
[V:4] A,,8- | 
[V:1] A2G2A4 | 
[V:2] c2B2A2G2 | 
[V:3] c8- | 
[V:4] A,,4C,4- | 
[V:1] E8 | 
[V:2] A4G4- | 
[V:3] c8- | 
[V:4] C,2B,,2A,,2G,,2 | 
[V:1] C8 | 
[V:2] G4^F4 | 
[V:3] c8 | 
[V:4] A,,8 | 
[V:1] z4D4 | 
[V:2] G8- | 
[V:3] B8- | 
[V:4] G,,8 | 
[V:1] E4D4 | 
[V:2] G8- | 
[V:3] B8- | 
[V:4] z8 | 
[V:1] G6FE | 
[V:2] G8- | 
[V:3] B8- | 
[V:4] G,,8- | 
[V:1] D8- | 
[V:2] G8 | 
[V:3] B8 | 
[V:4] G,,8 | 
[V:1] D4E4 | 
[V:2] z8 | 
[V:3] z8 | 
[V:4] G,6F,E, | 
[V:1] F4G4 | 
[V:2] z8 | 
[V:3] z8 | 
[V:4] D,4E,4 | 
[V:1] F2D4E2 | 
[V:2] z8 | 
[V:3] z8 | 
[V:4] F,4G,4 | 
[V:1] F2A2G4 | 
[V:2] z8 | 
[V:3] z8 | 
[V:4] F,2D,4E,2 | 
[V:1] C4D4 | 
[V:2] z4B4 | 
[V:3] z8 | 
[V:4] F,2A,2G,4 | 
[V:1] C4F4 | 
[V:2] c2e2d4 | 
[V:3] z8 | 
[V:4] C,4D,4 | 
[V:1] E4F4 | 
[V:2] G4A4 | 
[V:3] z8 | 
[V:4] C,4F,4 | 
[V:1] G4C4 | 
[V:2] G4c4 | 
[V:3] z8 | 
[V:4] E,4F,4 | 
[V:1] z2D2E4 | 
[V:2] B4c4 | 
[V:3] z8 | 
[V:4] G,4C,4 | 
[V:1] F4G4 | 
[V:2] d4G4 | 
[V:3] z8 | 
[V:4] z2D,2E,4 | 
[V:1] C4z2D2 | 
[V:2] z2A2B4 | 
[V:3] z8 | 
[V:4] F,4G,4 | 
[V:1] E4F4 | 
[V:2] c4d4 | 
[V:3] z8 | 
[V:4] C,4z2D,2 | 
[V:1] G4F2F2- | 
[V:2] G4z2A2 | 
[V:3] z8 | 
[V:4] E,4F,4 | 
[V:1] F2E2F4- | 
[V:2] B4c4 | 
[V:3] z8 | 
[V:4] G,4F,2F,2- | 
[V:1] F4G4 | 
[V:2] d4c2c2- | 
[V:3] z8 | 
[V:4] F,2D,2E,2C,2 | 
[V:1] F2D2E4 | 
[V:2] c2B2c2BA | 
[V:3] z8 | 
[V:4] D,4C,4 | 
[V:1] D8 | 
[V:2] B8 | 
[V:3] z8 | 
[V:4] G,8 | 
[V:1] z4E4 | 
[V:2] z4c4 | 
[V:3] z8 | 
[V:4] z4C,4 | 
[V:1] D4G4- | 
[V:2] B6cd | 
[V:3] z8 | 
[V:4] G,8 | 
[V:1] G2A2B4 | 
[V:2] e2f2d4 | 
[V:3] z8 | 
[V:4] C,4z2G,2 | 
[V:1] c4z4 | 
[V:2] z2c2d4 | 
[V:3] z8 | 
[V:4] A,4B,4 | 
[V:1] G4A4 | 
[V:2] e4f4 | 
[V:3] z8 | 
[V:4] C4F,2C2- | 
[V:1] G2c3BB2- | 
[V:2] e2f2g4 | 
[V:3] z8 | 
[V:4] C2A,2G,4 | 
[V:1] BAA4^G2 | 
[V:2] e2e4d2 | 
[V:3] z8 | 
[V:4] A,2C2B,4 | 
[V:1] A8 | 
[V:2] e8- | 
[V:3] A8- | 
[V:4] A,8- | 
[V:1] z8 | 
[V:2] e4d4 | 
[V:3] A8- | 
[V:4] A,4D,4 | 
[V:1] A8 | 
[V:2] f6ed | 
[V:3] A8- | 
[V:4] D,8 | 
[V:1] A8 | 
[V:2] e2g4^f2 | 
[V:3] A8 | 
[V:4] z4D,4 | 
[V:1] B4G2B2- | 
[V:2] g6fe | 
[V:3] G8- | 
[V:4] G,,8- | 
[V:1] Bcd3cBA | 
[V:2] dcBAG2z2 | 
[V:3] G8- | 
[V:4] G,,8 | 
[V:1] B2G3FED | 
[V:2] g3fedc2- | 
[V:3] G8- | 
[V:4] z4C,4- | 
[V:1] C2c4B2 | 
[V:2] c2e2d4 | 
[V:3] G8 | 
[V:4] C,4G,,4 | 
[V:1] c8 | 
[V:2] c8- | 
[V:3] A8- | 
[V:4] z4F,,4 | 
[V:1] z8 | 
[V:2] c8 | 
[V:3] A8- | 
[V:4] A,,6B,,2 | 
[V:1] A8- | 
[V:2] z8 | 
[V:3] A8- | 
[V:4] C,2D,3E,F,2- | 
[V:1] A4G2F2 | 
[V:2] F8 | 
[V:3] A8 | 
[V:4] F,E,D,C,D,4 | 
[V:1] E8- | 
[V:2] G8- | 
[V:3] c8- | 
[V:4] C,8- | 
[V:1] E8 | 
[V:2] G8 | 
[V:3] c8- | 
[V:4] C,8 | 
[V:1] E8- | 
[V:2] A6GF | 
[V:3] c8- | 
[V:4] A,,8- | 
[V:1] E8 | 
[V:2] E4A4 | 
[V:3] c8 | 
[V:4] A,,8 | 
[V:1] F6ED | 
[V:2] F4D4 | 
[V:3] A8- | 
[V:4] D,6C,B,, | 
[V:1] C4D4 | 
[V:2] A8 | 
[V:3] A8- | 
[V:4] A,,4D,4- | 
[V:1] E8 | 
[V:2] z8 | 
[V:3] A8- | 
[V:4] D,4C,4 | 
[V:1] F8 | 
[V:2] d6c2 | 
[V:3] A8 | 
[V:4] D,8 | 
[V:1] G6F2 | 
[V:2] B2A2B4 | 
[V:3] G8- | 
[V:4] G,,8 | 
[V:1] E2D2E4 | 
[V:2] G4B4- | 
[V:3] G8- | 
[V:4] z4G,4- | 
[V:1] D4G4- | 
[V:2] B2A2d4- | 
[V:3] G8- | 
[V:4] G,2F,2E,2D,2 | 
[V:1] G8 | 
[V:2] d4^c4 | 
[V:3] G8 | 
[V:4] E,8 | 
[V:1] F4A4- | 
[V:2] d4f4- | 
[V:3] A8- | 
[V:4] D,8- | 
[V:1] A4F4 | 
[V:2] f4d4- | 
[V:3] A8- | 
[V:4] D,8 | 
[V:1] E8 | 
[V:2] d4^c4 | 
[V:3] A8- | 
[V:4] z4A,,4 | 
[V:1] D4F4- | 
[V:2] d6cB | 
[V:3] A8 | 
[V:4] D,8- | 
[V:1] F2G2A4 | 
[V:2] A4d4- | 
[V:3] z8 | 
[V:4] D,8 | 
[V:1] B4A2d2- | 
[V:2] d2e2f2g2 | 
[V:3] z8 | 
[V:4] z8 | 
[V:1] d2c2d4 | 
[V:2] e4z2d2 | 
[V:3] z8 | 
[V:4] A,4_B,4 | 
[V:1] c2d2c2d2 | 
[V:2] e2d2e2d2 | 
[V:3] z8 | 
[V:4] A,2_B,2A,2B,2 | 
[V:1] c2d4cB | 
[V:2] e2d2f4- | 
[V:3] z8 | 
[V:4] A,2_B,4A,G, | 
[V:1] A2GFE4 | 
[V:2] f2edc4 | 
[V:3] z8 | 
[V:4] F,2G,2A,4 | 
[V:1] D4G4 | 
[V:2] d2B4AG | 
[V:3] d8- | 
[V:4] F,2G,4F,E, | 
[V:1] F4A4- | 
[V:2] A4F4 | 
[V:3] d8- | 
[V:4] D,2C,2D,4 | 
[V:1] A2G2G4- | 
[V:2] G4_B4 | 
[V:3] d8- | 
[V:4] G,,8 | 
[V:1] G4^F4 | 
[V:2] A8 | 
[V:3] d8- | 
[V:4] D,8 | 
[V:1] G8 ||  
[V:2] G8 ||  
[V:3] d8 ||  
[V:4] G,,8 ||  
[V:1]  [K:C] [K:clef=treble][M:2/1]G8- | 
[V:2]  [K:C] [K:clef=treble-8][M:2/1]G8- | 
[V:3]  [K:C] [K:clef=treble-8][M:2/1]z8 | 
[V:4]  [K:C] [K:clef=bass][M:2/1]G,8 | 
[V:1] G4B4 | 
[V:2] G8 | 
[V:3] z8 | 
[V:4] C,4G,4 | 
[V:1] A4G2F2 | 
[V:2] A4B4 | 
[V:3] z8 | 
[V:4] F,4E,2D,2 | 
[V:1] E4G4- | 
[V:2] c8 | 
[V:3] z8 | 
[V:4] C,8 | 
[V:1] G2F2D4 | 
[V:2] d8 | 
[V:3] z8 | 
[V:4] B,,8 | 
[V:1] C8 | 
[V:2] e4g4- | 
[V:3] z8 | 
[V:4] C,8 | 
[V:1] B,8 | 
[V:2] g2f2d4 | 
[V:3] z8 | 
[V:4] G,,8 | 
[V:1] z4C4 | 
[V:2] c8 | 
[V:3] z8 | 
[V:4] A,,8 | 
[V:1] D6CD | 
[V:2] B8 | 
[V:3] z8 | 
[V:4] G,,8 | 
[V:1] E8 | 
[V:2] z4c4 | 
[V:3] z8 | 
[V:4] C,8 | 
[V:1] z4F4 | 
[V:2] d8 | 
[V:3] z8 | 
[V:4] z8 | 
[V:1] G6FG | 
[V:2] e8 | 
[V:3] z8 | 
[V:4] z8 | 
[V:1] A8 | 
[V:2] z4f4 | 
[V:3] z8 | 
[V:4] z8 | 
[V:1] z4B4 | 
[V:2] g6fg | 
[V:3] z8 | 
[V:4] z8 | 
[V:1] c6Bc | 
[V:2] a8 | 
[V:3] z8 | 
[V:4] z8 | 
[V:1] d8 | 
[V:2] z4d4 | 
[V:3] z8 | 
[V:4] z8 | 
[V:1] G8 | 
[V:2] e6de | 
[V:3] z8 | 
[V:4] z8 | 
[V:1] z4c4 | 
[V:2] f4e2f2 | 
[V:3] z8 | 
[V:4] z8 | 
[V:1] B4G4- | 
[V:2] g4g4 | 
[V:3] z8 | 
[V:4] z8 | 
[V:1] G2F2E4 | 
[V:2] c8 | 
[V:3] z8 | 
[V:4] z8 | 
[V:1] D8 | 
[V:2] z4f4 | 
[V:3] z8 | 
[V:4] z8 | 
[V:1] C8 | 
[V:2] e4c4- | 
[V:3] z8 | 
[V:4] z8 | 
[V:1] E4F4 | 
[V:2] c2B2A4 | 
[V:3] z8 | 
[V:4] z8 | 
[V:1] G4E2G2- | 
[V:2] G8 | 
[V:3] z8 | 
[V:4] z8 | 
[V:1] G2F2E2DC | 
[V:2] B4c4 | 
[V:3] z8 | 
[V:4] z8 | 
[V:1] B,8 | 
[V:2] d4B2d2- | 
[V:3] z8 | 
[V:4] G,8 | 
[V:1] z8 | 
[V:2] d2c2B2AG | 
[V:3] z8 | 
[V:4] G,8 | 
[V:1] z8 | 
[V:2] F4G2B2- | 
[V:3] z8 | 
[V:4] A,4B,4- | 
[V:1] z8 | 
[V:2] Bcd2G2c2- | 
[V:3] z8 | 
[V:4] B,2A,G,B,2A,2- | 
[V:1] z8 | 
[V:2] c2B2A4 | 
[V:3] z8 | 
[V:4] A,2G,4F,2 | 
[V:1] z4D4 | 
[V:2] G2c4B2 | 
[V:3] z8 | 
[V:4] G,2E,2D,4 | 
[V:1] E4F4 | 
[V:2] cBAGA4 | 
[V:3] z8 | 
[V:4] C,4z4 | 
[V:1] G4E2F2- | 
[V:2] G4z4 | 
[V:3] z8 | 
[V:4] G,,4A,,4 | 
[V:1] F2G2E4 | 
[V:2] z8 | 
[V:3] z8 | 
[V:4] B,,4C,4 | 
[V:1] F4G4 | 
[V:2] z8 | 
[V:3] z8 | 
[V:4] A,,2B,,4C,2 | 
[V:1] A4D4 | 
[V:2] z8 | 
[V:3] z8 | 
[V:4] A,,4B,,4 | 
[V:1] z4A4 | 
[V:2] z8 | 
[V:3] z8 | 
[V:4] C,4D,4 | 
[V:1] B4c4 | 
[V:2] d4e4 | 
[V:3] z8 | 
[V:4] z8 | 
[V:1] d4B2c2- | 
[V:2] f4g4 | 
[V:3] z8 | 
[V:4] z8 | 
[V:1] c2d2B4 | 
[V:2] e2f4g2 | 
[V:3] z8 | 
[V:4] z8 | 
[V:1] e4c2d2- | 
[V:2] e4f4 | 
[V:3] z8 | 
[V:4] z8 | 
[V:1] d2B2c2A2 | 
[V:2] g4a4 | 
[V:3] z8 | 
[V:4] z8 | 
[V:1] B2d4^c2 | 
[V:2] g2d2e4 | 
[V:3] z8 | 
[V:4] z8 | 
[V:1] d8 | 
[V:2] d4z4 | 
[V:3] z8 | 
[V:4] D,8 | 
[V:1] z8 | 
[V:2] d8 | 
[V:3] z8 | 
[V:4] G,4F,2G,2- | 
[V:1] z8 | 
[V:2] g4f2g2 | 
[V:3] z8 | 
[V:4] G,2B,2A,2G,2 | 
[V:1] z8 | 
[V:2] d2g4f2 | 
[V:3] z8 | 
[V:4] B,4A,4 | 
[V:1] z8 | 
[V:2] e2c2d4 | 
[V:3] z8 | 
[V:4] G,2C4B,2 | 
[V:1] z8 | 
[V:2] c2f3ee2- | 
[V:3] z8 | 
[V:4] A,2F,2G,4 | 
[V:1] z8 | 
[V:2] edd4^c2 | 
[V:3] z8 | 
[V:4] D,4E,4 | 
[V:1] d6cB | 
[V:2] d4z4 | 
[V:3] z8 | 
[V:4] D,8 | 
[V:1] A4B4 | 
[V:2] f6ed | 
[V:3] z8 | 
[V:4] D6CB, | 
[V:1] c4A2B2- | 
[V:2] e2f4d2 | 
[V:3] z8 | 
[V:4] A,4F,2G,2- | 
[V:1] B2G2A4 | 
[V:2] e4c2d2- | 
[V:3] z8 | 
[V:4] G,2E,2F,4 | 
[V:1] B2A4^G2 | 
[V:2] d2c2B4 | 
[V:3] z8 | 
[V:4] D,4E,4 | 
[V:1] A4z4 | 
[V:2] A2c3BB2- | 
[V:3] z8 | 
[V:4] F,4E,2D,2- | 
[V:1] z8 | 
[V:2] BAA4^G2 | 
[V:3] z8 | 
[V:4] D,2C,2B,,4 | 
[V:1] A2c3BB2- | 
[V:2] A3Bc2d2- | 
[V:3] z8 | 
[V:4] A,,4z4 | 
[V:1] BAA4^G2 | 
[V:2] dcBAB4 | 
[V:3] z8 | 
[V:4] z8 | 
[V:1] A3GF2E2- | 
[V:2] A4z4 | 
[V:3] z8 | 
[V:4] D,3E,F,2G,2- | 
[V:1] EDD4^C2 | 
[V:2] z8 | 
[V:3] z8 | 
[V:4] G,F,E,D,E,4 | 
[V:1] D4z4 | 
[V:2] a3gf2e2- | 
[V:3] z8 | 
[V:4] D,4A,4 | 
[V:1] z8 | 
[V:2] edd4^c2 | 
[V:3] z8 | 
[V:4] G,2F,2E,4 | 
[V:1] F6ED | 
[V:2] d6cB | 
[V:3] z8 | 
[V:4] D,4z4 | 
[V:1] E4F2G2 | 
[V:2] c4d4 | 
[V:3] z8 | 
[V:4] A,3G,F,2E,2- | 
[V:1] A2B4G2- | 
[V:2] c2d2B2c2 | 
[V:3] z8 | 
[V:4] E,D,D,4C,2 | 
[V:1] G2^F2G4 | 
[V:2] A4G4 | 
[V:3] z8 | 
[V:4] D,4z4 | 
[V:1] z8 | 
[V:2] F3GA2_B2- | 
[V:3] z8 | 
[V:4] D,4C,2D,2 | 
[V:1] z8 | 
[V:2] B2G4^F2 | 
[V:3] z8 | 
[V:4] B,,2C,2A,,4 | 
[V:1] z4G4 | 
[V:2] G8 | 
[V:3] z8 | 
[V:4] G,,4z4 | 
[V:1] A3Bc2d2- | 
[V:2] z4f4 | 
[V:3] z8 | 
[V:4] F,3G,A,2_B,2- | 
[V:1] d2B2G2c2- | 
[V:2] g4e2f2 | 
[V:3] z8 | 
[V:4] B,2G,4F,2 | 
[V:1] c2B2c4 | 
[V:2] d4c4- | 
[V:3] z8 | 
[V:4] G,4z4 | 
[V:1] z2A2B2G2- | 
[V:2] c2d3cBA | 
[V:3] z8 | 
[V:4] F,4G,4 | 
[V:1] G2A3GF2 | 
[V:2] G2c4B2 | 
[V:3] z8 | 
[V:4] E,2F,2D,4 | 
[V:1] E4G3F | 
[V:2] c4e4 | 
[V:3] z8 | 
[V:4] C,8 | 
[V:1] G2F4ED | 
[V:2] d8 | 
[V:3] z8 | 
[V:4] B,,8 | 
[V:1] E6DC | 
[V:2] c6BA | 
[V:3] z8 | 
[V:4] C,4z4 | 
[V:1] D4C2G2- | 
[V:2] B4c4 | 
[V:3] z8 | 
[V:4] G,,4A,,4 | 
[V:1] G2A2B4 | 
[V:2] d8 | 
[V:3] z8 | 
[V:4] z4G,,4 | 
[V:1] c4z4 | 
[V:2] c4d4 | 
[V:3] z8 | 
[V:4] A,,4B,,4 | 
[V:1] G8 | 
[V:2] e4e4- | 
[V:3] z8 | 
[V:4] z4G,,4 | 
[V:1] F8 | 
[V:2] e2dcd4 | 
[V:3] z8 | 
[V:4] A,,4B,,4 | 
[V:1] E6DC | 
[V:2] G4A4 | 
[V:3] z8 | 
[V:4] C,4z4 | 
[V:1] D4C4 | 
[V:2] B4c4 | 
[V:3] z8 | 
[V:4] G,,4A,,4 | 
[V:1] z4G4 | 
[V:2] d4e4 | 
[V:3] z8 | 
[V:4] B,,4C,4 | 
[V:1] F4E4 | 
[V:2] f4g4 | 
[V:3] z8 | 
[V:4] D,4z4 | 
[V:1] G4E2F2- | 
[V:2] z4c4 | 
[V:3] z8 | 
[V:4] G,,4A,,4 | 
[V:1] F2G2A2G2- | 
[V:2] d4c2B2 | 
[V:3] z8 | 
[V:4] B,,4C,4 | 
[V:1] G2F2G2A2 | 
[V:2] A4G2c2- | 
[V:3] z8 | 
[V:4] D,4E,4 | 
[V:1] G2c4B2 | 
[V:2] c2e2d4 | 
[V:3] z8 | 
[V:4] z4G,,4 | 
[V:1] c2d2B4 | 
[V:2] c4z2d2 | 
[V:3] z8 | 
[V:4] A,,4B,,4 | 
[V:1] z4A4 | 
[V:2] e2g4f2 | 
[V:3] z8 | 
[V:4] C,4D,4 | 
[V:1] G4A4 | 
[V:2] g4c2f2- | 
[V:3] z8 | 
[V:4] E,4F,4 | 
[V:1] B6AB | 
[V:2] fedcd4 | 
[V:3] z8 | 
[V:4] z4G,,4 | 
[V:1] c4B2d2 | 
[V:2] c4d4 | 
[V:3] z8 | 
[V:4] A,,4B,,4 | 
[V:1] c2BAB2A2- | 
[V:2] e4d2c2 | 
[V:3] z8 | 
[V:4] C,4D,4 | 
[V:1] A2G2A4 | 
[V:2] B4A4 | 
[V:3] z8 | 
[V:4] E,4F,4 | 
[V:1] B4c4 | 
[V:2] z4A4 | 
[V:3] z8 | 
[V:4] G,4z4 | 
[V:1] d4z4 | 
[V:2] B4c4 | 
[V:3] z8 | 
[V:4] G,,4A,,4 | 
[V:1] D4E4 | 
[V:2] d4z4 | 
[V:3] z8 | 
[V:4] B,,4C,4 | 
[V:1] F4G2B2 | 
[V:2] z4G4 | 
[V:3] z8 | 
[V:4] D,4E,4 | 
[V:1] A2c2B2G2- | 
[V:2] A4B4 | 
[V:3] z8 | 
[V:4] F,4G,4 | 
[V:1] G2FEF4 | 
[V:2] c8 | 
[V:3] z8 | 
[V:4] A,8 | 
[V:1] GABcd2G2 | 
[V:2] d6e2 | 
[V:3] z8 | 
[V:4] G,8- | 
[V:1] d2cde2d2- | 
[V:2] d2g4f2 | 
[V:3] z8 | 
[V:4] G,8- | 
[V:1] d2c4B2 | 
[V:2] g2e2d4 | 
[V:3] z8 | 
[V:4] G,8 | 
[V:1] c8 ||  
[V:2] c8 ||  
[V:3] z8 ||  
[V:4] C,8 ||  



